src/media/icons/methodology/React.svg

<?xml version="1.0" encoding="UTF-8"?>
<svg width="80px" height="80px" viewBox="0 0 80 80" version="1.1" xmlns="http://www.w3.org/2000/svg" xmlns:xlink="http://www.w3.org/1999/xlink">
    <title>01 Base / Ic / React</title>
    <g id="01-Base-/-Ic-/-React" stroke="none" stroke-width="1" fill="none" fill-rule="evenodd">
        <g id="react" transform="translate(0.000000, 4.000000)" fill-rule="nonzero">
            <path d="M0.0116904666,35.8360569 C0.0116904666,41.87456 5.90814813,47.5114391 15.2039546,50.6889205 C13.3476217,60.0340658 14.8714677,67.5665602 19.9605918,70.501433 C25.1914471,73.5183276 32.984463,71.4300709 40.3811972,64.9641744 C47.5912611,71.168921 54.8780043,73.61072 59.9627288,70.6673622 C65.1888702,67.6419826 66.7780823,59.5988159 64.8705249,49.9617231 C74.5528711,46.7606723 79.9688254,41.9540678 79.9688254,35.8360569 C79.9688254,29.9377137 74.0616829,24.8350764 64.8909518,21.6780219 C66.94464,11.642762 65.2045832,4.29316673 59.9045907,1.23698964 C54.7950397,-1.70951076 47.4234463,0.858620776 40.1074769,7.22552544 C32.4961032,0.467681516 25.197418,-1.59543443 19.9030823,1.46922767 C14.7982452,4.42421309 13.3416507,12.0937249 15.2039546,21.6117131 C6.22177947,24.7433126 0.0116904666,29.9615974 0.0116904666,35.8360569 Z" id="Path" fill="#FFFFFF"></path>
            <path d="M62.9488259,24.8130782 C62.1930211,24.5538225 61.4308038,24.3136518 60.6628997,24.0927947 C60.7902458,23.5753362 60.9080087,23.0555662 61.0161278,22.5337515 C62.7464426,14.1342141 61.6151071,7.3675709 57.7515964,5.14009704 C54.0474155,3.00375855 47.989114,5.2312324 41.8704747,10.5557371 C41.2675618,11.0816017 40.6780317,11.6226155 40.1024487,12.1782608 C39.7169964,11.8087896 39.3247328,11.4464906 38.9258598,11.0915502 C32.5133875,5.39779012 26.0858307,2.99873039 22.2264054,5.2328037 C18.5256813,7.37511313 17.4295429,13.7366754 18.987329,21.6968775 C19.1423179,22.4851698 19.3173123,23.2693964 19.512143,24.0487983 C18.602675,24.3071199 17.7243187,24.5824115 16.8839878,24.8753017 C9.36626358,27.4962289 4.56500151,31.6042337 4.56500151,35.8649688 C4.56500151,40.2658638 9.71886313,44.6799578 17.5495902,47.3561947 C18.1845465,47.572195 18.8247879,47.772336 19.4697179,47.956431 C19.2602015,48.7961146 19.0741918,49.6414893 18.9119067,50.4915653 C17.4267146,58.3134931 18.5866477,64.5242106 22.2776297,66.6533211 C26.089916,68.8515688 32.4882467,66.5920404 38.7187626,61.1459171 C39.2112078,60.7153811 39.7055385,60.2587616 40.2004978,59.7801438 C40.8239334,60.3816559 41.464015,60.9656727 42.119997,61.531514 C48.1550432,66.7246581 54.1152957,68.8217141 57.8031351,66.6869469 C61.6119645,64.4820998 62.8495198,57.8100488 61.2423949,49.6924025 C61.1198336,49.0723678 60.9768453,48.4391342 60.8165728,47.7942729 C61.2659644,47.6616553 61.706871,47.524638 62.1370927,47.381964 C70.27768,44.6849859 75.5739013,40.3246304 75.5739013,35.8649688 C75.5739013,31.588835 70.6180234,27.4531753 62.9488259,24.8130782 Z" id="Path" fill="#53C1DE"></path>
            <path d="M61.1829998,44.5027152 C60.7948889,44.6312475 60.3964074,44.7553801 59.9903836,44.8757417 C59.0916005,42.0307472 57.8785574,39.0053676 56.3946224,35.8800533 C57.8109916,32.8285901 58.9768956,29.8421787 59.850538,27.0154113 C60.5767925,27.2259654 61.2819917,27.4475186 61.9614215,27.6816422 C68.532595,29.9433704 72.5406652,33.288038 72.5406652,35.8649688 C72.5406652,38.6100287 68.2117357,42.1737354 61.1833141,44.5027152 L61.1829998,44.5027152 Z M58.2666683,50.2816397 C58.9772099,53.8711157 59.0787158,57.1164773 58.6079545,59.6534971 C58.1849608,61.9331381 57.3345736,63.4528987 56.2830601,64.0616201 C54.0452157,65.3569992 49.2593524,63.6731949 44.098577,59.2320746 C43.5068257,58.7229737 42.9106748,58.1793041 42.3129525,57.6042086 C44.313845,55.4157029 46.3134805,52.8714551 48.2650342,50.0462591 C51.6980088,49.7417413 54.9411706,49.2436394 57.8823285,48.5638953 C58.0268881,49.1484186 58.1557346,49.7213144 58.2666683,50.2816397 L58.2666683,50.2816397 Z M28.7733809,63.8378671 C26.5870751,64.6100035 24.8457613,64.6320017 23.793305,64.0251659 C21.5532608,62.7335579 20.6224231,57.746254 21.8923471,51.057233 C22.0433616,50.2667313 22.216271,49.4805699 22.4108759,48.6996556 C25.3193509,49.3429455 28.5389431,49.8058503 31.9800885,50.084913 C33.9445269,52.849457 36.0019861,55.3905621 38.0754726,57.6158362 C37.6348015,58.0421182 37.183702,58.4574861 36.722584,58.8615622 C33.9674678,61.2700498 31.206695,62.9783664 28.7736952,63.8378671 L28.7733809,63.8378671 Z M18.5307095,44.4857452 C15.0681944,43.3022426 12.208744,41.7642548 10.2487052,40.0861072 C8.48759302,38.5776599 7.59823763,37.0802117 7.59823763,35.8649688 C7.59823763,33.279553 11.4532633,29.9813958 17.8827057,27.7397803 C18.6896933,27.4596545 19.5047087,27.2032134 20.3267045,26.9707864 C21.2154314,29.8610343 22.3810212,32.8829571 23.7876483,35.9388199 C22.3627941,39.0402504 21.1805486,42.1102549 20.2836509,45.0344429 C19.6949295,44.8659343 19.1104392,44.6829798 18.5307095,44.4857452 L18.5307095,44.4857452 Z M21.9643127,21.1142397 C20.629651,14.2938581 21.5158638,9.14911002 23.746166,7.85813053 C26.1219705,6.4829294 31.374824,8.4439109 36.9114541,13.3598778 C37.2653107,13.6741377 37.6207386,14.0031677 37.9767951,14.3435112 C35.9139934,16.5587289 33.8753897,19.0806642 31.9279214,21.8291809 C28.5882819,22.1387269 25.3913164,22.635886 22.4523582,23.3018026 C22.2713205,22.5767264 22.1085869,21.8472024 21.9643127,21.1139255 L21.9643127,21.1142397 Z M52.594278,28.6775317 C51.9001022,27.4784512 51.1801753,26.2944644 50.4349985,25.1263953 C52.700812,25.4123718 54.8714049,25.7926262 56.9096943,26.2580451 C56.2978303,28.2193408 55.5351217,30.2702006 54.636967,32.3725991 C53.980735,31.1274355 53.2997028,29.8955007 52.594278,28.6775317 L52.594278,28.6775317 Z M40.1033915,16.5112756 C41.5024764,18.0269509 42.9037611,19.7195545 44.2821048,21.5557748 C41.4861382,21.4236538 38.6855067,21.4230245 35.8894811,21.5538893 C37.2690819,19.734639 38.6823084,18.0445495 40.1033915,16.5112756 L40.1033915,16.5112756 Z M27.5323688,28.6982728 C26.835776,29.9065555 26.1674776,31.1309309 25.5280194,32.3703992 C24.644635,30.2752288 23.88884,28.2152554 23.2716336,26.2259905 C25.2976669,25.7725136 27.4582034,25.4020012 29.7092468,25.1207386 C28.9557187,26.2960468 28.2298926,27.4888869 27.5323688,28.6982728 L27.5323688,28.6982728 Z M29.7739843,46.8257241 C27.4484614,46.5661454 25.2552419,46.2144886 23.2298371,45.7735821 C23.8567855,43.7491201 24.6292362,41.6448361 25.5314763,39.5047265 C26.1736302,40.7451135 26.8448653,41.9702276 27.5446249,43.1790527 C28.2586583,44.4121542 29.0019893,45.6280568 29.7739843,46.8257241 L29.7739843,46.8257241 Z M40.1872989,55.4329872 C38.74956,53.8814863 37.3155923,52.1656275 35.9149361,50.3199794 C37.2744243,50.3734036 38.6606245,50.4004299 40.0694514,50.4004299 C41.5169323,50.4004299 42.9477574,50.3680611 44.3559559,50.3052092 C42.9732125,52.1844831 41.576956,53.902856 40.1872989,55.4329872 Z M54.6658789,39.3956783 C55.6149437,41.5590431 56.4150493,43.6520138 57.0504827,45.6422214 C54.9914521,46.1120399 52.7686922,46.4904088 50.4265135,46.7713571 C51.1770764,45.5814794 51.9038938,44.3767878 52.6065341,43.1579973 C53.3208108,41.919325 54.0074291,40.664908 54.6658789,39.3956783 L54.6658789,39.3956783 Z M49.9786932,41.6426363 C48.9030445,43.5112116 47.7669186,45.3443152 46.5721164,47.1390411 C44.4653183,47.2895716 42.288126,47.3671938 40.0694514,47.3671938 C37.8598904,47.3671938 35.710353,47.2983709 33.6403233,47.1641819 C32.4145327,45.3736347 31.2569145,43.5373585 30.1699517,41.659292 C29.0880695,39.7911898 28.0775197,37.8826763 27.1404867,35.9378771 C28.0751364,33.9924952 29.0826325,32.0829594 30.1608382,30.2133196 L30.1608382,30.2139481 C31.2387056,28.3439101 32.3872104,26.5154855 33.6038692,24.7326277 C35.7156954,24.5729837 37.8809458,24.4893906 40.0697657,24.4893906 C42.2683276,24.4893906 44.4364064,24.5736122 46.5476041,24.7345133 C47.7519565,26.5146275 48.8931156,28.3366877 49.9689511,30.1972923 C51.0508645,32.0627726 52.0718062,33.9629545 53.0301564,35.8948235 C52.0816643,37.8463752 51.0639696,39.7635279 49.9790074,41.6426363 L49.9786932,41.6426363 Z M56.2365497,7.76793795 C58.6142397,9.13936796 59.5391065,14.6693986 58.0451151,21.9215733 C57.947192,22.3940087 57.8407453,22.8646371 57.7258271,23.3332286 C54.7799552,22.6534845 51.5807899,22.1475261 48.2314084,21.8332663 C46.2801689,19.0548949 44.2585353,16.5285599 42.2290452,14.3419399 C42.7608555,13.82924 43.3053216,13.3298317 43.8619394,12.8441774 C49.1044223,8.28175282 54.0040477,6.48041533 56.2365497,7.76793795 L56.2365497,7.76793795 Z" id="Shape" fill="#FFFFFF"></path>
            <path d="M40.0694514,29.5241477 C43.5715633,29.5241477 46.4102725,32.3631713 46.4102725,35.8649688 C46.4102725,39.3670807 43.5715633,42.2061042 40.0694514,42.2061042 C36.5676539,42.2061042 33.7286303,39.3670807 33.7286303,35.8649688 C33.7286303,32.3631713 36.5676539,29.5241477 40.0694514,29.5241477" id="Path" fill="#53C1DE"></path>
        </g>
    </g>
</svg>

<?xml version="1.0" encoding="utf-8"?>
<!-- Generator: Adobe Illustrator 23.0.6, SVG Export Plug-In . SVG Version: 6.00 Build 0)  -->
<svg version="1.1" id="Calque_1" xmlns="http://www.w3.org/2000/svg" xmlns:xlink="http://www.w3.org/1999/xlink" x="0px" y="0px"
	 viewBox="0 0 80 80" style="enable-background:new 0 0 80 80;" xml:space="preserve">
<style type="text/css">
	.st0{fill:#F92A62;}
	.st1{fill:#3E0A18;}
	.st2{fill:#7D1531;}
	.st3{fill:#BB204A;}
	.st4{fill:#FA5581;}
	.st5{fill:#FB7FA1;}
	.st6{fill:#FDAAC0;}
	.st7{fill:#FED4E0;}
</style>
<title>01 Base / Ic / React</title>
<g id="react" transform="translate(0.000000, 4.000000)">
	<path class="st0" d="M62.9,24.8c-0.8-0.3-1.5-0.5-2.3-0.7c0.1-0.5,0.2-1,0.4-1.6c1.7-8.4,0.6-15.2-3.3-17.4C54,3,48,5.2,41.9,10.6
		c-0.6,0.5-1.2,1.1-1.8,1.6c-0.4-0.4-0.8-0.7-1.2-1.1C32.5,5.4,26.1,3,22.2,5.2c-3.7,2.1-4.8,8.5-3.2,16.5c0.2,0.8,0.3,1.6,0.5,2.4
		c-0.9,0.3-1.8,0.5-2.6,0.8c-7.5,2.6-12.3,6.7-12.3,11c0,4.4,5.2,8.8,13,11.5c0.6,0.2,1.3,0.4,1.9,0.6c-0.2,0.8-0.4,1.7-0.6,2.5
		c-1.5,7.8-0.3,14,3.4,16.2c3.8,2.2,10.2-0.1,16.4-5.5c0.5-0.4,1-0.9,1.5-1.4c0.6,0.6,1.3,1.2,1.9,1.8c6,5.2,12,7.3,15.7,5.2
		c3.8-2.2,5-8.9,3.4-17c-0.1-0.6-0.3-1.3-0.4-1.9c0.4-0.1,0.9-0.3,1.3-0.4c8.1-2.7,13.4-7.1,13.4-11.5
		C75.6,31.6,70.6,27.5,62.9,24.8z M43.9,12.8C49.1,8.3,54,6.5,56.2,7.8c2.4,1.4,3.3,6.9,1.8,14.2c-0.1,0.5-0.2,0.9-0.3,1.4
		c-2.9-0.7-6.1-1.2-9.5-1.5c-2-2.8-4-5.3-6-7.5C42.8,13.8,43.3,13.3,43.9,12.8z M25.5,39.5c0.6,1.2,1.3,2.5,2,3.7
		c0.7,1.2,1.5,2.4,2.2,3.6c-2.3-0.3-4.5-0.6-6.5-1.1C23.9,43.7,24.6,41.6,25.5,39.5z M25.5,32.4c-0.9-2.1-1.6-4.2-2.3-6.1
		c2-0.5,4.2-0.8,6.4-1.1c-0.8,1.2-1.5,2.4-2.2,3.6C26.8,29.9,26.2,31.1,25.5,32.4z M27.1,35.9c0.9-1.9,1.9-3.9,3-5.7v0
		c1.1-1.9,2.2-3.7,3.4-5.5c2.1-0.2,4.3-0.2,6.5-0.2c2.2,0,4.4,0.1,6.5,0.2c1.2,1.8,2.3,3.6,3.4,5.5c1.1,1.9,2.1,3.8,3.1,5.7
		c-0.9,2-2,3.9-3.1,5.7h0c-1.1,1.9-2.2,3.7-3.4,5.5c-2.1,0.2-4.3,0.2-6.5,0.2c-2.2,0-4.4-0.1-6.4-0.2c-1.2-1.8-2.4-3.6-3.5-5.5
		C29.1,39.8,28.1,37.9,27.1,35.9z M52.6,43.2c0.7-1.2,1.4-2.5,2.1-3.8c0.9,2.2,1.7,4.3,2.4,6.2c-2.1,0.5-4.3,0.8-6.6,1.1
		C51.2,45.6,51.9,44.4,52.6,43.2z M54.6,32.4c-0.7-1.2-1.3-2.5-2-3.7c-0.7-1.2-1.4-2.4-2.2-3.6c2.3,0.3,4.4,0.7,6.5,1.1
		C56.3,28.2,55.5,30.3,54.6,32.4z M40.1,16.5c1.4,1.5,2.8,3.2,4.2,5c-2.8-0.1-5.6-0.1-8.4,0C37.3,19.7,38.7,18,40.1,16.5z M23.7,7.9
		c2.4-1.4,7.6,0.6,13.2,5.5c0.4,0.3,0.7,0.6,1.1,1c-2.1,2.2-4.1,4.7-6,7.5c-3.3,0.3-6.5,0.8-9.5,1.5c-0.2-0.7-0.3-1.5-0.5-2.2v0
		C20.6,14.3,21.5,9.1,23.7,7.9z M20.3,45c-0.6-0.2-1.2-0.4-1.8-0.5c-3.5-1.2-6.3-2.7-8.3-4.4c-1.8-1.5-2.7-3-2.7-4.2
		c0-2.6,3.9-5.9,10.3-8.1c0.8-0.3,1.6-0.5,2.4-0.8c0.9,2.9,2.1,5.9,3.5,9C22.4,39,21.2,42.1,20.3,45z M36.7,58.9
		c-2.8,2.4-5.5,4.1-7.9,5h0c-2.2,0.8-3.9,0.8-5,0.2c-2.2-1.3-3.2-6.3-1.9-13c0.2-0.8,0.3-1.6,0.5-2.4c2.9,0.6,6.1,1.1,9.6,1.4
		c2,2.8,4,5.3,6.1,7.5C37.6,58,37.2,58.5,36.7,58.9z M40.2,55.4c-1.4-1.6-2.9-3.3-4.3-5.1c1.4,0.1,2.7,0.1,4.2,0.1
		c1.4,0,2.9,0,4.3-0.1C43,52.2,41.6,53.9,40.2,55.4z M58.6,59.7c-0.4,2.3-1.3,3.8-2.3,4.4c-2.2,1.3-7-0.4-12.2-4.8
		c-0.6-0.5-1.2-1.1-1.8-1.6c2-2.2,4-4.7,6-7.6c3.4-0.3,6.7-0.8,9.6-1.5c0.1,0.6,0.3,1.2,0.4,1.7C59,53.9,59.1,57.1,58.6,59.7z
		 M61.2,44.5L61.2,44.5c-0.4,0.1-0.8,0.3-1.2,0.4c-0.9-2.8-2.1-5.9-3.6-9c1.4-3.1,2.6-6,3.5-8.9c0.7,0.2,1.4,0.4,2.1,0.7
		c6.6,2.3,10.6,5.6,10.6,8.2C72.5,38.6,68.2,42.2,61.2,44.5z"/>
	<path class="st0" d="M40.1,29.5c3.5,0,6.3,2.8,6.3,6.3c0,3.5-2.8,6.3-6.3,6.3c-3.5,0-6.3-2.8-6.3-6.3
		C33.7,32.4,36.6,29.5,40.1,29.5"/>
</g>
<rect x="-109.3" y="101.1" class="st1" width="25.7" height="25.7"/>
<rect x="-71.5" y="101.1" class="st2" width="25.7" height="25.7"/>
<rect x="-31.1" y="101.1" class="st3" width="25.7" height="25.7"/>
<rect x="4" y="101.1" class="st0" width="25.7" height="25.7"/>
<rect x="39.2" y="101.1" class="st4" width="25.7" height="25.7"/>
<rect x="82.8" y="101.1" class="st5" width="25.7" height="25.7"/>
<rect x="122.1" y="101.1" class="st6" width="25.7" height="25.7"/>
<rect x="172.2" y="101.1" class="st7" width="25.7" height="25.7"/>
</svg>
